common/src/main/resources/icons/plugins/resharper/ProjectModel/ShortcutOverlay.svg

<svg xmlns="http://www.w3.org/2000/svg" xmlns:ti="urn:schemas-jetbrains-com:tisvg" ti:v="1" width="16" height="16" data-big="true"><g fill-rule="evenodd"><path fill="#673AB7" d="M8 15H1V8h7z"/><path fill="#EBEBEB" d="m3 9-1 1h2l.5.5L2 13v1h1l2.5-2.5.5.5v2l1-1V9z"/></g></svg>

<!--
  - The MIT License (MIT)
  -
  - Copyright (c) 2015-2024 Elior "Mallowigi" Boukhobza
  -
  - Permission is hereby granted, free of charge, to any person obtaining a copy
  - of this software and associated documentation files (the "Software"), to deal
  - in the Software without restriction, including without limitation the rights
  - to use, copy, modify, merge, publish, distribute, sublicense, and/or sell
  - copies of the Software, and to permit persons to whom the Software is
  - furnished to do so, subject to the following conditions:
  -
  - The above copyright notice and this permission notice shall be included in all
  - copies or substantial portions of the Software.
  -
  - THE SOFTWARE IS PROVIDED "AS IS", WITHOUT WARRANTY OF ANY KIND, EXPRESS OR
  - IMPLIED, INCLUDING BUT NOT LIMITED TO THE WARRANTIES OF MERCHANTABILITY,
  - FITNESS FOR A PARTICULAR PURPOSE AND NONINFRINGEMENT. IN NO EVENT SHALL THE
  - AUTHORS OR COPYRIGHT HOLDERS BE LIABLE FOR ANY CLAIM, DAMAGES OR OTHER
  - LIABILITY, WHETHER IN AN ACTION OF CONTRACT, TORT OR OTHERWISE, ARISING FROM,
  - OUT OF OR IN CONNECTION WITH THE SOFTWARE OR THE USE OR OTHER DEALINGS IN THE
  - SOFTWARE.
  -->

<svg data-big="true" ti:v='1' width='16' height='16' viewBox='0,0,16,16' xmlns='http://www.w3.org/2000/svg'
     xmlns:ti='urn:schemas-jetbrains-com:tisvg'>
  <g>
    <path fill-rule='evenodd' d='M8,15L1,15L1,8L8,8L8,15Z' fill='#673AB7'/>
    <path fill-rule='evenodd' d='M3,9L2,10L4,10L4.5,10.5L2,13L2,14L3,14L5.5,11.5L6,12L6,14L7,13L7,9L3,9Z'
          fill='#EBEBEB'/>
  </g>
</svg>
